public/img/Login/data4.svg

<svg width="198" height="221" viewBox="0 0 198 221" fill="none" xmlns="http://www.w3.org/2000/svg">
<path d="M145.719 81.7763C161.921 81.7763 175.055 67.8235 175.055 50.6119C175.055 33.4003 161.921 19.4475 145.719 19.4475C129.517 19.4475 116.383 33.4003 116.383 50.6119C116.383 67.8235 129.517 81.7763 145.719 81.7763Z" fill="#FCE290"/>
<path d="M127.907 55.1368C130.333 55.1368 132.3 53.0474 132.3 50.47C132.3 47.8926 130.333 45.8032 127.907 45.8032C125.48 45.8032 123.514 47.8926 123.514 50.47C123.514 53.0474 125.48 55.1368 127.907 55.1368Z" fill="white"/>
<path d="M127.907 67.31C130.333 67.31 132.3 65.2206 132.3 62.6432C132.3 60.0658 130.333 57.9764 127.907 57.9764C125.48 57.9764 123.514 60.0658 123.514 62.6432C123.514 65.2206 125.48 67.31 127.907 67.31Z" fill="white"/>
<path d="M127.907 42.3137C130.333 42.3137 132.3 40.2243 132.3 37.6469C132.3 35.0695 130.333 32.9801 127.907 32.9801C125.48 32.9801 123.514 35.0695 123.514 37.6469C123.514 40.2243 125.48 42.3137 127.907 42.3137Z" fill="white"/>
<path d="M125.314 37.6789L126.932 40.0269C128.097 38.812 129.262 37.5977 130.427 36.3827" stroke="#FCE290" stroke-width="2.66666" stroke-linecap="round" stroke-linejoin="round"/>
<path d="M134.041 65.7173H168.227" stroke="white" stroke-width="1.33333" stroke-miterlimit="10" stroke-linecap="round"/>
<path d="M134.041 54.8524H168.227" stroke="white" stroke-width="1.33333" stroke-miterlimit="10" stroke-linecap="round"/>
<path d="M134.041 42.7093H168.227" stroke="white" stroke-width="1.33333" stroke-miterlimit="10" stroke-linecap="round"/>
<path d="M112.085 128.117C112.237 126.123 112.389 124.129 112.541 122.135C111.2 121.5 109.333 120.432 107.458 118.659C105.41 116.723 101.66 113.195 101.801 108.193C101.937 103.367 105.54 100.181 106.373 99.4797L106.642 84.5807C106.653 84.0004 106.858 83.438 107.239 83.0219C107.703 82.5132 108.438 81.931 109.438 81.8025C111.14 81.5833 112.907 82.7708 113.633 84.7571C113.775 88.6966 113.916 92.6361 114.058 96.5756C114.457 96.3704 115.442 95.9371 116.698 96.125C118.527 96.3986 119.553 97.7829 119.762 98.0781C120.12 97.8679 121.159 97.324 122.449 97.5777C123.925 97.8679 125.147 99.0886 125.655 100.732C126.078 100.526 127.752 99.7654 129.096 100.582C129.827 101.027 130.39 101.896 130.746 104.238C131.072 106.382 131.309 110.275 129.473 115.456C128.975 116.862 128.142 118.878 126.754 121.139C127.225 124.006 127.696 126.873 128.167 129.741C122.807 129.2 117.446 128.659 112.086 128.118L112.085 128.117Z" fill="#FADED0"/>
<path d="M62.3515 129.334C58.8471 133.295 56.4689 133.783 54.9408 133.489C53.095 133.135 50.851 133.434 47.1607 129.051C46.6908 128.492 46.0212 128.169 45.3161 128.166C42.805 128.153 39.4486 128.502 35.9183 130.064C21.8441 136.294 15.2913 168.289 15.2913 168.289C13.0515 177.568 10.6613 191.121 10.7606 208.021C10.7822 211.738 13.4901 214.813 16.9825 215.039C23.3229 215.451 29.7891 215.783 36.3767 216.026C51.1296 216.57 65.3403 216.62 78.9603 216.283C82.7011 216.191 85.6208 212.818 85.412 208.85C84.8044 197.305 84.1973 185.759 83.5897 174.214C87.5303 177.248 101.038 186.943 115.371 184.034C117.971 183.507 122.353 182.553 125.684 178.759C129.818 174.049 129.912 167.72 130 163.68C130.214 153.885 130.718 142.702 131.559 128.701C131.646 127.253 130.6 126.006 129.235 125.935C123.669 125.646 118.103 125.357 112.538 125.068C111.418 125.01 110.405 125.766 110.076 126.905C107.97 134.213 105.865 141.521 103.759 148.829C89.2575 136.849 75.6562 131.794 64.7206 129.74C63.9277 129.591 63.1384 129.457 62.3521 129.335L62.3515 129.334Z" fill="url(#paint0_linear_24_2)"/>
<path d="M44.093 131.959C44.093 133.454 45.0297 134.792 46.4562 135.337C48.4042 136.081 51.1181 136.795 54.3867 136.762C57.4633 136.731 60.0232 136.048 61.8918 135.333C63.3134 134.789 64.2435 133.45 64.2435 131.961V118.23C64.2435 116.229 62.5807 114.607 60.5298 114.607H47.8068C45.7559 114.607 44.093 116.229 44.093 118.23V131.959Z" fill="#F6D7C2"/>
<path d="M75.6826 120.312C79.9861 120.312 83.4748 116.605 83.4748 112.034C83.4748 107.462 79.9861 103.756 75.6826 103.756C71.3792 103.756 67.8905 107.462 67.8905 112.034C67.8905 116.605 71.3792 120.312 75.6826 120.312Z" fill="black"/>
<path d="M82.7871 130.05C87.0906 130.05 90.5792 126.344 90.5792 121.773C90.5792 117.201 87.0906 113.495 82.7871 113.495C78.4836 113.495 74.995 117.201 74.995 121.773C74.995 126.344 78.4836 130.05 82.7871 130.05Z" fill="black"/>
<path d="M89.663 138.329C93.9664 138.329 97.4551 134.623 97.4551 130.051C97.4551 125.479 93.9664 121.773 89.663 121.773C85.3595 121.773 81.8708 125.479 81.8708 130.051C81.8708 134.623 85.3595 138.329 89.663 138.329Z" fill="black"/>
<path d="M31.5542 124.907C35.8577 124.907 39.3463 121.201 39.3463 116.63C39.3463 112.058 35.8577 108.352 31.5542 108.352C27.2507 108.352 23.7621 112.058 23.7621 116.63C23.7621 121.201 27.2507 124.907 31.5542 124.907Z" fill="black"/>
<path d="M25.2776 135.269C29.5811 135.269 33.0697 131.563 33.0697 126.991C33.0697 122.419 29.5811 118.713 25.2776 118.713C20.9741 118.713 17.4855 122.419 17.4855 126.991C17.4855 131.563 20.9741 135.269 25.2776 135.269Z" fill="black"/>
<path d="M20.2216 144.914C24.525 144.914 28.0137 141.207 28.0137 136.636C28.0137 132.064 24.525 128.358 20.2216 128.358C15.9181 128.358 12.4294 132.064 12.4294 136.636C12.4294 141.207 15.9181 144.914 20.2216 144.914Z" fill="black"/>
<path d="M77.9469 106.918C83.9896 91.4207 77.0619 73.6534 62.4734 67.234C47.8849 60.8147 31.16 68.1741 25.1173 83.6719C19.0745 99.1696 26.0022 116.937 40.5907 123.356C55.1792 129.776 71.9041 122.416 77.9469 106.918Z" fill="#FADED0"/>
<path d="M79.3784 88.3822C75.9089 89.1107 69.3718 89.9691 61.6452 87.7482C55.3156 85.9286 50.7656 82.7829 48.1227 80.6265C45.9172 84.8754 42.926 89.8445 38.8981 94.9912C34.3319 100.826 29.7097 105.26 25.7902 108.526C24.5731 105.766 21.6408 98.1427 23.5792 88.8864C25.8323 78.127 33.8512 69.0554 44.3981 66.1391C54.8121 63.2599 65.5629 66.9713 72.3269 74.4527C76.9714 79.5893 78.6944 85.3508 79.3778 88.3815L79.3784 88.3822Z" fill="black"/>
<path d="M70.8803 104.424C72.0505 104.321 72.8667 102.543 72.7035 100.453C72.5402 98.3629 71.4592 96.7521 70.289 96.8553C69.1188 96.9584 68.3025 98.7365 68.4658 100.827C68.6291 102.917 69.7101 104.528 70.8803 104.424Z" fill="black"/>
<path d="M56.3459 105.993C57.5161 105.89 58.3323 104.112 58.169 102.022C58.0058 99.9317 56.9248 98.3209 55.7546 98.424C54.5844 98.5272 53.7681 100.305 53.9314 102.395C54.0947 104.486 55.1757 106.096 56.3459 105.993Z" fill="black"/>
<defs>
<linearGradient id="paint0_linear_24_2" x1="72.5795" y1="139.117" x2="68.5793" y2="210.91" gradientUnits="userSpaceOnUse">
<stop stop-color="#D9E5F5"/>
<stop offset="0.88" stop-color="#8AC0E8"/>
</linearGradient>
</defs>
</svg>

<svg xmlns="http://www.w3.org/2000/svg" width="198" height="221" fill="none"><path fill="#FCE290" d="M145.719 81.776c16.202 0 29.336-13.952 29.336-31.164s-13.134-31.164-29.336-31.164-29.336 13.952-29.336 31.164c0 17.211 13.134 31.164 29.336 31.164"/><path fill="#fff" d="M127.907 55.137c2.426 0 4.393-2.09 4.393-4.667s-1.967-4.667-4.393-4.667c-2.427 0-4.393 2.09-4.393 4.667s1.966 4.667 4.393 4.667M127.907 67.31c2.426 0 4.393-2.09 4.393-4.667s-1.967-4.667-4.393-4.667c-2.427 0-4.393 2.09-4.393 4.667s1.966 4.667 4.393 4.667M127.907 42.314c2.426 0 4.393-2.09 4.393-4.667s-1.967-4.667-4.393-4.667c-2.427 0-4.393 2.09-4.393 4.667s1.966 4.667 4.393 4.667"/><path stroke="#FCE290" stroke-linecap="round" stroke-linejoin="round" stroke-width="2.667" d="m125.314 37.679 1.618 2.348 3.495-3.644"/><path stroke="#fff" stroke-linecap="round" stroke-miterlimit="10" stroke-width="1.333" d="M134.041 65.717h34.186M134.041 54.852h34.186M134.041 42.71h34.186"/><path fill="#FADED0" d="m112.085 128.117.456-5.982a19.6 19.6 0 0 1-5.083-3.476c-2.048-1.936-5.798-5.464-5.657-10.466.136-4.826 3.739-8.012 4.572-8.713l.269-14.9c.011-.58.216-1.142.597-1.558.464-.509 1.199-1.091 2.199-1.22 1.702-.219 3.469.969 4.195 2.955l.425 11.819c.399-.206 1.384-.639 2.64-.451 1.829.274 2.855 1.658 3.064 1.953.358-.21 1.397-.754 2.687-.5 1.476.29 2.698 1.51 3.206 3.154.423-.206 2.097-.967 3.441-.15.731.445 1.294 1.314 1.65 3.656.326 2.144.563 6.037-1.273 11.218a30 30 0 0 1-2.719 5.683l1.413 8.602-16.081-1.623z"/><path fill="url(#a)" d="M62.352 129.334c-3.505 3.961-5.883 4.449-7.411 4.155-1.846-.354-4.09-.055-7.78-4.438a2.43 2.43 0 0 0-1.845-.885c-2.511-.013-5.867.336-9.398 1.898-14.074 6.23-20.627 38.225-20.627 38.225-2.24 9.279-4.63 22.832-4.53 39.732.021 3.717 2.73 6.792 6.222 7.018a691.39 691.39 0 0 0 61.978 1.244c3.74-.092 6.66-3.465 6.451-7.433l-1.822-34.636c3.94 3.034 17.448 12.729 31.781 9.82 2.6-.527 6.982-1.481 10.313-5.275 4.134-4.71 4.228-11.039 4.316-15.079.214-9.795.718-20.978 1.559-34.979.087-1.448-.959-2.695-2.324-2.766l-16.697-.867c-1.12-.058-2.133.698-2.462 1.837l-6.317 21.924c-14.502-11.98-28.103-17.035-39.038-19.089a76 76 0 0 0-2.369-.405z"/><path fill="#F6D7C2" d="M44.093 131.959c0 1.495.937 2.833 2.363 3.378a21.6 21.6 0 0 0 7.93 1.425 21.6 21.6 0 0 0 7.506-1.429c1.421-.544 2.351-1.883 2.351-3.372V118.23c0-2.001-1.662-3.623-3.713-3.623H47.807c-2.051 0-3.714 1.622-3.714 3.623z"/><path fill="#000" d="M75.683 120.312c4.303 0 7.792-3.707 7.792-8.278s-3.489-8.278-7.792-8.278c-4.304 0-7.793 3.706-7.793 8.278 0 4.571 3.49 8.278 7.793 8.278"/><path fill="#000" d="M82.787 130.05c4.304 0 7.792-3.706 7.792-8.277 0-4.572-3.488-8.278-7.792-8.278-4.303 0-7.792 3.706-7.792 8.278 0 4.571 3.489 8.277 7.792 8.277"/><path fill="#000" d="M89.663 138.329c4.303 0 7.792-3.706 7.792-8.278s-3.489-8.278-7.792-8.278-7.792 3.706-7.792 8.278 3.489 8.278 7.792 8.278M31.554 124.907c4.304 0 7.792-3.706 7.792-8.277 0-4.572-3.488-8.278-7.792-8.278-4.303 0-7.792 3.706-7.792 8.278 0 4.571 3.489 8.277 7.792 8.277"/><path fill="#000" d="M25.278 135.269c4.303 0 7.792-3.706 7.792-8.278s-3.489-8.278-7.792-8.278c-4.304 0-7.792 3.706-7.792 8.278s3.488 8.278 7.792 8.278"/><path fill="#000" d="M20.222 144.914c4.303 0 7.792-3.707 7.792-8.278s-3.489-8.278-7.792-8.278c-4.304 0-7.793 3.706-7.793 8.278 0 4.571 3.49 8.278 7.793 8.278"/><path fill="#FADED0" d="M77.947 106.918c6.043-15.497-.885-33.265-15.474-39.684-14.588-6.42-31.313.94-37.356 16.438-6.042 15.498.885 33.265 15.474 39.684 14.588 6.42 31.313-.94 37.356-16.438"/><path fill="#000" d="M79.378 88.382c-3.47.729-10.006 1.587-17.733-.634-6.33-1.82-10.88-4.965-13.522-7.122a92.3 92.3 0 0 1-9.225 14.365 89 89 0 0 1-13.108 13.535c-1.217-2.76-4.15-10.383-2.21-19.64 2.252-10.759 10.271-19.83 20.818-22.747 10.414-2.88 21.165.832 27.929 8.314 4.644 5.136 6.367 10.898 7.05 13.929zM70.88 104.424c1.17-.103 1.987-1.881 1.824-3.971s-1.245-3.7-2.415-3.598-1.987 1.882-1.823 3.972c.163 2.09 1.244 3.701 2.414 3.597M56.346 105.993c1.17-.103 1.986-1.881 1.823-3.971s-1.244-3.701-2.414-3.598-1.987 1.881-1.824 3.971c.164 2.091 1.245 3.701 2.415 3.598"/><defs><linearGradient id="a" x1="72.579" x2="68.579" y1="139.117" y2="210.91" gradientUnits="userSpaceOnUse"><stop stop-color="#D9E5F5"/><stop offset=".88" stop-color="#8AC0E8"/></linearGradient></defs></svg>
